third_party/noto/noto_2/emoji_u1f688.svg

<svg enable-background="new 0 0 128 128" version="1.1" viewBox="0 0 128 128" xmlns="http://www.w3.org/2000/svg"><line x1="4" x2="124" y1="5.5" y2="5.5" fill="none" stroke="#607D8B" stroke-miterlimit="10" stroke-width="3"/><rect x="57.73" y="30.32" width="13.81" height="3.99" fill="#607D8B"/><path d="m76.63 31.48h-24c-1 0-1.81-0.81-1.81-1.81v-0.17c0-1 0.81-1.81 1.81-1.81h24c1 0 1.81 0.81 1.81 1.81v0.17c0 1-0.81 1.81-1.81 1.81z" fill="#82AEC0"/><path d="m74.74 30.27" fill="none" stroke="#82AEC0" stroke-miterlimit="10" stroke-width="2"/><path d="m65.87 29.37 11.06-10.61c0.42-0.41 0.43-1.09 0.02-1.51l-13.33-11.6" fill="none" stroke="#82AEC0" stroke-miterlimit="10" stroke-width="3"/><polygon points="62.65 6.79 67.38 10.94 69.58 8.89 64.6 4.55" fill="#607D8B"/><polygon points="74.06 15.62 74.06 20.19 76.28 17.9" fill="#82AEC0"/><path d="m63.39 29.37-11.06-10.61c-0.42-0.41-0.43-1.09-0.02-1.51l13.33-11.6" fill="none" stroke="#82AEC0" stroke-miterlimit="10" stroke-width="3"/><polygon points="66.62 6.79 61.89 10.94 59.69 8.89 64.66 4.55" fill="#607D8B"/><polygon points="55.2 15.62 55.2 20.19 52.99 17.9" fill="#82AEC0"/><path d="m67.12 8.71h-4.97c-0.61 0-1.1-0.49-1.1-1.1v-3.92c0-0.61 0.49-1.1 1.1-1.1h4.97c0.61 0 1.1 0.49 1.1 1.1v3.92c-0.01 0.6-0.5 1.1-1.1 1.1z" fill="#82AEC0"/><path d="m37.91 33.86c-6.97-0.01-16.45 2.8-22.14 12.61-12.46 21.48-11.37 52.32-11.37 52.32s-0.02 2.65 2.35 4.58l6.56 5.93-8.14 8.47c-1.72 1.63-1.29 2.33-1.29 2.33 0 2.16 1.75 3.91 3.91 3.91h116.21v-90.03c-13.46 0.01-59.48-0.08-86.09-0.12z" fill="#E0E0E0"/><path d="m60.24 51.67s-5.74 2.94-11.16 10.47-9.26 16.26-9.26 16.26h84.18v-27.1l-63.76 0.37z" fill="#BAE2FD"/><path d="m98.25 76.57c-0.61 0-1.11-0.5-1.11-1.11v-20.47c0-0.61 0.5-1.11 1.11-1.11h25.75v-4.12h-61.11c-3.18 0-5.91 0.24-9.63 4.12-5.48 5.72-11.67 15.56-14.76 21.17-1.11 2.01-1.05 5.65 3.56 5.65h81.94v-4.12h-25.75zm-36.93-1.11c0 0.61-0.5 1.11-1.11 1.11h-15.44c-0.83 0-1.38-0.87-1-1.61 0 0 8.05-15.54 15.07-20.36 1.15-0.79 2.47-0.81 2.47 0.42v20.44zm33.06 0c0 0.61-0.5 1.11-1.11 1.11h-28.09c-0.61 0-1.11-0.5-1.11-1.11v-20.47c0-0.61 0.5-1.11 1.11-1.11h28.09c0.61 0 1.11 0.5 1.11 1.11v20.47z" fill="#37474F"/><path d="m22.27 79.26 17.83-35.47-22.36-0.43c-0.73 0.92-1.42 1.92-2.05 3.02-8.94 15.43-10.74 35.42-11.06 44.93 5.04-0.36 13.46-2.65 17.64-12.05z" fill="#BAE2FD"/><path d="m26.08 77.68c7.95-16.31 13.84-25.83 15.19-27.92s3.13-5.2 2.39-7.1c-0.48-1.24-0.75-2.32-4.79-2.32h-18.31c-1.79 1.62-3.44 3.61-4.85 6.04-0.37 0.64-0.73 1.29-1.08 1.95h18.26c0.9 0 1.42 1.01 0.89 1.74 0 0-5.67 10.87-12.52 23.17-2.88 5.18-12.37 6.25-15.67 6.23-1.26 9.99-0.99 15.97-0.99 15.97s7.21 0.22 11.83-3.03c5.34-3.78 7.3-9.93 9.65-14.73z" fill="#37474F"/><path d="m13.19 82.11c-1.56-0.49-3.42 0.97-4.15 3.28-0.73 2.3-0.05 4.57 1.51 5.07 1.56 0.49 3.42-0.97 4.15-3.28s0.06-4.58-1.51-5.07z" fill="#FFCA28"/><path d="m15.95 45.97h13.12c0.92 0 1.66-0.74 1.66-1.66s-0.74-1.66-1.66-1.66h-10.75c-0.84 1-1.64 2.11-2.37 3.32z" fill="#FFCA28"/><path d="M9.34,120.8c-2.38,0-3.75-0.78-4.52-1.55c-0.35-0.35-0.95-0.13-0.95,0.37v0.47    c0,2.16,1.75,3.91,3.91,3.91H124v-3.2H9.34z" fill="#9E9E9E"/><path d="M5.23,101.59c2.36,5.01,7.96,7.71,7.96,7.71H124v-7.71H5.23z" fill="#BDBDBD"/></svg>

<?xml version="1.0" encoding="utf-8"?>
<!-- Generator: Adobe Illustrator 25.2.3, SVG Export Plug-In . SVG Version: 6.00 Build 0)  -->
<svg version="1.1" id="Layer_4" xmlns="http://www.w3.org/2000/svg" xmlns:xlink="http://www.w3.org/1999/xlink" x="0px" y="0px"
	 viewBox="0 0 128 128" style="enable-background:new 0 0 128 128;" xml:space="preserve">
<line style="fill:none;stroke:#607D8B;stroke-width:3;stroke-miterlimit:10;" x1="4" y1="5.5" x2="124" y2="5.5"/>
<g>
	<rect x="57.73" y="30.32" style="fill:#607D8B;" width="13.81" height="3.99"/>
	<path style="fill:#82AEC0;" d="M76.63,31.48h-24c-1,0-1.81-0.81-1.81-1.81V29.5c0-1,0.81-1.81,1.81-1.81h24
		c1,0,1.81,0.81,1.81,1.81v0.17C78.44,30.67,77.63,31.48,76.63,31.48z"/>
	<path style="fill:none;stroke:#82AEC0;stroke-width:2;stroke-miterlimit:10;" d="M74.74,30.27"/>
	<path style="fill:none;stroke:#82AEC0;stroke-width:3;stroke-miterlimit:10;" d="M65.87,29.37l11.06-10.61
		c0.42-0.41,0.43-1.09,0.02-1.51L63.62,5.65"/>
	<polygon style="fill:#607D8B;" points="62.65,6.79 67.38,10.94 69.58,8.89 64.6,4.55 	"/>
	<polygon style="fill:#82AEC0;" points="74.06,15.62 74.06,20.19 76.28,17.9 	"/>
	<path style="fill:none;stroke:#82AEC0;stroke-width:3;stroke-miterlimit:10;" d="M63.39,29.37L52.33,18.76
		c-0.42-0.41-0.43-1.09-0.02-1.51l13.33-11.6"/>
	<polygon style="fill:#607D8B;" points="66.62,6.79 61.89,10.94 59.69,8.89 64.66,4.55 	"/>
	<polygon style="fill:#82AEC0;" points="55.2,15.62 55.2,20.19 52.99,17.9 	"/>
	<path style="fill:#82AEC0;" d="M67.12,8.71h-4.97c-0.61,0-1.1-0.49-1.1-1.1V3.69c0-0.61,0.49-1.1,1.1-1.1h4.97
		c0.61,0,1.1,0.49,1.1,1.1v3.92C68.21,8.21,67.72,8.71,67.12,8.71z"/>
</g>
<g>
	<g>
		<path style="fill:#E0E0E0;" d="M37.91,33.86c-6.97-0.01-16.45,2.8-22.14,12.61C3.31,67.95,4.4,98.79,4.4,98.79
			s-0.02,2.65,2.35,4.58l6.56,5.93l-8.14,8.47c-1.72,1.63-1.29,2.33-1.29,2.33c0,2.16,1.75,3.91,3.91,3.91H124v-11.68v-3.02V33.98
			C110.54,33.99,64.52,33.9,37.91,33.86z"/>
	</g>
	<g>
		<path style="fill:#BAE2FD;" d="M60.24,51.67c0,0-5.74,2.94-11.16,10.47S39.82,78.4,39.82,78.4H124v-27.1L60.24,51.67z"/>
	</g>
	<path style="fill:#37474F;" d="M98.25,76.57c-0.61,0-1.11-0.5-1.11-1.11V54.99c0-0.61,0.5-1.11,1.11-1.11H124v-4.12H62.89
		c-3.18,0-5.91,0.24-9.63,4.12C47.78,59.6,41.59,69.44,38.5,75.05c-1.11,2.01-1.05,5.65,3.56,5.65H124v-4.12H98.25z M61.32,75.46
		c0,0.61-0.5,1.11-1.11,1.11H44.77c-0.83,0-1.38-0.87-1-1.61c0,0,8.05-15.54,15.07-20.36c1.15-0.79,2.47-0.81,2.47,0.42V75.46z
		 M94.38,75.46c0,0.61-0.5,1.11-1.11,1.11H65.18c-0.61,0-1.11-0.5-1.11-1.11V54.99c0-0.61,0.5-1.11,1.11-1.11h28.09
		c0.61,0,1.11,0.5,1.11,1.11V75.46z"/>
	<g>
		<g>
			<path style="fill:#BAE2FD;" d="M22.27,79.26L40.1,43.79l-22.36-0.43c-0.73,0.92-1.42,1.92-2.05,3.02
				C6.75,61.81,4.95,81.8,4.63,91.31C9.67,90.95,18.09,88.66,22.27,79.26z"/>
		</g>
		<path style="fill:#37474F;" d="M26.08,77.68c7.95-16.31,13.84-25.83,15.19-27.92s3.13-5.2,2.39-7.1
			c-0.48-1.24-0.75-2.32-4.79-2.32c-2.37,0-11.78,0-18.31,0c-1.79,1.62-3.44,3.61-4.85,6.04c-0.37,0.64-0.73,1.29-1.08,1.95h18.26
			c0.9,0,1.42,1.01,0.89,1.74c0,0-5.67,10.87-12.52,23.17c-2.88,5.18-12.37,6.25-15.67,6.23c-1.26,9.99-0.99,15.97-0.99,15.97
			s7.21,0.22,11.83-3.03C21.77,88.63,23.73,82.48,26.08,77.68z"/>
		<path style="fill:#FFCA28;" d="M13.19,82.11c-1.56-0.49-3.42,0.97-4.15,3.28c-0.73,2.3-0.05,4.57,1.51,5.07
			c1.56,0.49,3.42-0.97,4.15-3.28C15.43,84.87,14.76,82.6,13.19,82.11z"/>
		<path style="fill:#FFCA28;" d="M15.95,45.97h13.12c0.92,0,1.66-0.74,1.66-1.66c0-0.92-0.74-1.66-1.66-1.66H18.32
			C17.48,43.65,16.68,44.76,15.95,45.97z"/>
	</g>
	<g>
		<path style="fill:#9E9E9E;" d="M9.34,120.8c-2.38,0-3.75-0.78-4.52-1.55c-0.35-0.35-0.95-0.13-0.95,0.37v0.47
			c0,2.16,1.75,3.91,3.91,3.91H124v-3.2H9.34z"/>
	</g>
	<path style="fill:#BDBDBD;" d="M5.23,101.59c2.36,5.01,7.96,7.71,7.96,7.71H124v-7.71H5.23z"/>
</g>
</svg>
